X: 26
T:Old Joe Clark
M:4/4
L:1/8
C:
S:AABB form
R:Key of D
K:D
|:A2B2=c2B2|A2G2F4|A2B2=c2B2|A2AAA2AA|A2B2=c2B2|A2G2F4|D2F2E2E2|D4D4:|!
|:D2DDD2D2|A2G2F2F2|D2DDD2F2|E2EEE2EE|D2DDD2D2|A2G2F2F2|D2F2E2E2|D4D4:|
